X:12
T: DEUTSCHES HERZ VERZAGE NICHT
N: B0011
O: Europa, Mitteleuropa, Deutschland
R: politisch, national, Vaterlands - Lied
M: 4/4
L: 1/8
K: F
AB | c3AB2G2 | A4z2
FF | E2F2B2A2 | G4z2
EF | G3GA2GA | B4z2
GG | A2c2A2G2 | F4z2

@@@ Tune index: 1815
